X: 37751
T: Some Boy John
R: reel
M: 4/4
K: Eminor
E>B e>g f>d e>d|B2 A>B d>B A>F|E>B e>g f>d (3fga|b2 g2 a>g f>e|
B>B e>g f>d e>d|B2 A>B d>B A>F|E>B e>g f>d (3fga|b2 g>b a>g e>f|
g2f>g e>g (3ggg|f>g e>d B>A B>d|g2f>g e>d B>G|(3ABA G>A B>B e>f|
g2f>g e>g (3ggg|f>g e>d B>A B>d|g2f>g e>d B>G|(3ABA G>A B>e- e>z|

